X:47
T:Evan's Hornpipe
R:Hornpipe
C:Trad. arr. by Mitch Park
M:4/4
L:1/8
Q:116
K:G
|:Bc | " G" dgfe dcBA | GBDG "D" B2 (AG) | "D" FADF {B} A2 (GF) | "G" GBDG "D" B2 (Bc) |!
"G" dgfe dcBA | GBDG "D" B2 (AG) | FGAB cdef | "G" [B2g2]  [B2g2]   [B2g2] :|!
|:(ag) | "D" fadf {^g} a2 (=gf) | "G"  gbdg {ga}b2 (ag) | "D" fadf {^g}a2 =gf | "G" gbdg {ga}b2 (Bc) |!
"G" dgfe dcBA | GBDG "D" B2 (AG) | FGAB cdef | "G" [B2g2]  [B2g2]   [B2g2] :|
